X: 0
T: The Supple Dancer
M:C|
L:1/8
B:O'Neill's 1646
N:"collected by J. O'Neill"
K:G
d>c \
| (3BdB G>B c>AF>A | a>fg>e d>cB>A | (3BdB G>B c>BA>G | F>Ad>f e>dc>A |
| (3BdB G>B c>AF>A | a>fg>e d>cB>A | (3BdB (3GAB c>AF>A | G2 B2G2 :|
|: B>c \
| d2 g2 f2 e2 | (3ded (3cBA G2 F2 | Eedc BAGF | AGFE D2 B>c |
| d2 g2 f2 e2 | (3ded (3cBA G2 F2 | Eedc BAGF | A2 G2 G2 :|


